images/50721423.svg

<?xml version="1.0" encoding="UTF-8"?>
<svg xmlns="http://www.w3.org/2000/svg" xmlns:xlink="http://www.w3.org/1999/xlink" width="300pt" height="300pt" viewBox="0 0 300 300" version="1.1">
<defs>
<g>
<symbol overflow="visible" id="glyph0-0">
<path style="stroke:none;" d="M 0.453125 1.59375 L 0.453125 -6.34375 L 4.953125 -6.34375 L 4.953125 1.59375 Z M 0.953125 1.09375 L 4.453125 1.09375 L 4.453125 -5.84375 L 0.953125 -5.84375 Z M 0.953125 1.09375 "/>
</symbol>
<symbol overflow="visible" id="glyph0-1">
<path style="stroke:none;" d="M 3.546875 -5.953125 C 2.898438 -5.953125 2.382812 -5.710938 2 -5.234375 C 1.625 -4.753906 1.4375 -4.101562 1.4375 -3.28125 C 1.4375 -2.445312 1.625 -1.789062 2 -1.3125 C 2.382812 -0.832031 2.898438 -0.59375 3.546875 -0.59375 C 4.191406 -0.59375 4.703125 -0.832031 5.078125 -1.3125 C 5.453125 -1.789062 5.640625 -2.445312 5.640625 -3.28125 C 5.640625 -4.101562 5.453125 -4.753906 5.078125 -5.234375 C 4.703125 -5.710938 4.191406 -5.953125 3.546875 -5.953125 Z M 3.546875 -6.6875 C 4.460938 -6.6875 5.195312 -6.375 5.75 -5.75 C 6.300781 -5.132812 6.578125 -4.3125 6.578125 -3.28125 C 6.578125 -2.238281 6.300781 -1.410156 5.75 -0.796875 C 5.195312 -0.179688 4.460938 0.125 3.546875 0.125 C 2.617188 0.125 1.878906 -0.179688 1.328125 -0.796875 C 0.773438 -1.410156 0.5 -2.238281 0.5 -3.28125 C 0.5 -4.3125 0.773438 -5.132812 1.328125 -5.75 C 1.878906 -6.375 2.617188 -6.6875 3.546875 -6.6875 Z M 3.546875 -6.6875 "/>
</symbol>
<symbol overflow="visible" id="glyph0-2">
<path style="stroke:none;" d="M 0.890625 -6.5625 L 1.765625 -6.5625 L 1.765625 -3.875 L 5 -3.875 L 5 -6.5625 L 5.890625 -6.5625 L 5.890625 0 L 5 0 L 5 -3.125 L 1.765625 -3.125 L 1.765625 0 L 0.890625 0 Z M 0.890625 -6.5625 "/>
</symbol>
<symbol overflow="visible" id="glyph0-3">
<path style="stroke:none;" d="M 0.890625 -6.5625 L 2.078125 -6.5625 L 4.984375 -1.078125 L 4.984375 -6.5625 L 5.84375 -6.5625 L 5.84375 0 L 4.65625 0 L 1.75 -5.484375 L 1.75 0 L 0.890625 0 Z M 0.890625 -6.5625 "/>
</symbol>
<symbol overflow="visible" id="glyph1-0">
<path style="stroke:none;" d="M 0.40625 1.421875 L 0.40625 -5.640625 L 4.40625 -5.640625 L 4.40625 1.421875 Z M 0.84375 0.96875 L 3.953125 0.96875 L 3.953125 -5.1875 L 0.84375 -5.1875 Z M 0.84375 0.96875 "/>
</symbol>
<symbol overflow="visible" id="glyph1-1">
<path style="stroke:none;" d="M 3.6875 -5.015625 L 3.6875 -2.84375 L 5.859375 -2.84375 L 5.859375 -2.171875 L 3.6875 -2.171875 L 3.6875 0 L 3.03125 0 L 3.03125 -2.171875 L 0.84375 -2.171875 L 0.84375 -2.84375 L 3.03125 -2.84375 L 3.03125 -5.015625 Z M 3.6875 -5.015625 "/>
</symbol>
</g>
</defs>
<g id="surface25257">
<rect x="0" y="0" width="300" height="300" style="fill:rgb(100%,100%,100%);fill-opacity:1;stroke:none;"/>
<path style="fill:none;stroke-width:1.2;stroke-linecap:butt;stroke-linejoin:miter;stroke:rgb(100%,0%,0%);stroke-opacity:1;stroke-miterlimit:10;" d="M 153.511719 129.964844 L 160.410156 138.21875 "/>
<path style="fill:none;stroke-width:1.2;stroke-linecap:butt;stroke-linejoin:miter;stroke:rgb(0%,0%,0%);stroke-opacity:1;stroke-miterlimit:10;" d="M 160.410156 138.21875 L 167.308594 146.472656 "/>
<path style="fill:none;stroke-width:1.2;stroke-linecap:butt;stroke-linejoin:miter;stroke:rgb(100%,0%,0%);stroke-opacity:1;stroke-miterlimit:10;" d="M 153.511719 129.964844 L 143.527344 133.972656 "/>
<path style="fill:none;stroke-width:1.2;stroke-linecap:butt;stroke-linejoin:miter;stroke:rgb(0%,0%,0%);stroke-opacity:1;stroke-miterlimit:10;" d="M 143.527344 133.972656 L 133.546875 137.984375 "/>
<path style=" stroke:none;fill-rule:nonzero;fill:rgb(100%,100%,100%);fill-opacity:1;" d="M 149.511719 124.464844 L 157.511719 124.464844 L 157.511719 135.464844 L 149.511719 135.464844 Z M 149.511719 124.464844 "/>
<g style="fill:rgb(100%,0%,0%);fill-opacity:1;">
  <use xlink:href="#glyph0-1" x="149.511719" y="133.12793"/>
</g>
<path style="fill:none;stroke-width:1.2;stroke-linecap:butt;stroke-linejoin:miter;stroke:rgb(0%,0%,0%);stroke-opacity:1;stroke-miterlimit:10;" d="M 167.308594 146.472656 L 155.871094 164.695312 "/>
<path style="fill:none;stroke-width:1.2;stroke-linecap:butt;stroke-linejoin:miter;stroke:rgb(0%,0%,0%);stroke-opacity:1;stroke-miterlimit:10;" d="M 170.453125 150.984375 L 161.304688 165.566406 "/>
<path style="fill:none;stroke-width:1.2;stroke-linecap:butt;stroke-linejoin:miter;stroke:rgb(0%,0%,0%);stroke-opacity:1;stroke-miterlimit:10;" d="M 188.808594 147.261719 L 167.308594 146.472656 "/>
<path style="fill:none;stroke-width:1.2;stroke-linecap:butt;stroke-linejoin:miter;stroke:rgb(0%,0%,0%);stroke-opacity:1;stroke-miterlimit:10;" d="M 155.871094 164.695312 L 165.9375 183.710938 "/>
<path style="fill:none;stroke-width:1.2;stroke-linecap:butt;stroke-linejoin:miter;stroke:rgb(0%,0%,0%);stroke-opacity:1;stroke-miterlimit:10;" d="M 155.871094 164.695312 L 135.003906 159.453125 "/>
<path style="fill:none;stroke-width:1.2;stroke-linecap:butt;stroke-linejoin:miter;stroke:rgb(0%,0%,0%);stroke-opacity:1;stroke-miterlimit:10;" d="M 165.9375 183.710938 L 187.4375 184.503906 "/>
<path style="fill:none;stroke-width:1.2;stroke-linecap:butt;stroke-linejoin:miter;stroke:rgb(0%,0%,0%);stroke-opacity:1;stroke-miterlimit:10;" d="M 168.273438 178.734375 L 185.476562 179.367188 "/>
<path style="fill:none;stroke-width:1.2;stroke-linecap:butt;stroke-linejoin:miter;stroke:rgb(0%,0%,0%);stroke-opacity:1;stroke-miterlimit:10;" d="M 187.4375 184.503906 L 198.875 166.28125 "/>
<path style="fill:none;stroke-width:1.2;stroke-linecap:butt;stroke-linejoin:miter;stroke:rgb(0%,0%,0%);stroke-opacity:1;stroke-miterlimit:10;" d="M 198.875 166.28125 L 209.625 166.675781 "/>
<path style="fill:none;stroke-width:1.2;stroke-linecap:butt;stroke-linejoin:miter;stroke:rgb(100%,0%,0%);stroke-opacity:1;stroke-miterlimit:10;" d="M 209.625 166.675781 L 220.375 167.070312 "/>
<path style="fill:none;stroke-width:1.2;stroke-linecap:butt;stroke-linejoin:miter;stroke:rgb(0%,0%,0%);stroke-opacity:1;stroke-miterlimit:10;" d="M 198.875 166.28125 L 188.808594 147.261719 "/>
<path style="fill:none;stroke-width:1.2;stroke-linecap:butt;stroke-linejoin:miter;stroke:rgb(0%,0%,0%);stroke-opacity:1;stroke-miterlimit:10;" d="M 193.394531 166.746094 L 185.34375 151.53125 "/>
<path style=" stroke:none;fill-rule:nonzero;fill:rgb(100%,100%,100%);fill-opacity:1;" d="M 213.375 161.570312 L 228.375 161.570312 L 228.375 172.570312 L 213.375 172.570312 Z M 213.375 161.570312 "/>
<g style="fill:rgb(100%,0%,0%);fill-opacity:1;">
  <use xlink:href="#glyph0-1" x="213.375" y="170.233398"/>
  <use xlink:href="#glyph0-2" x="220.716797" y="170.233398"/>
</g>
<path style="fill:none;stroke-width:1.2;stroke-linecap:butt;stroke-linejoin:miter;stroke:rgb(0%,0%,0%);stroke-opacity:1;stroke-miterlimit:10;" d="M 188.808594 147.261719 L 200.246094 129.039062 "/>
<path style="fill:none;stroke-width:1.2;stroke-linecap:butt;stroke-linejoin:miter;stroke:rgb(0%,0%,0%);stroke-opacity:1;stroke-miterlimit:10;" d="M 200.246094 129.039062 L 210.996094 129.433594 "/>
<path style="fill:none;stroke-width:1.2;stroke-linecap:butt;stroke-linejoin:miter;stroke:rgb(0%,0%,100%);stroke-opacity:1;stroke-miterlimit:10;" d="M 210.996094 129.433594 L 221.746094 129.828125 "/>
<path style="fill:none;stroke-width:1.2;stroke-linecap:butt;stroke-linejoin:miter;stroke:rgb(0%,0%,100%);stroke-opacity:1;stroke-miterlimit:10;" d="M 221.746094 129.828125 L 226.78125 139.335938 "/>
<path style="fill:none;stroke-width:1.2;stroke-linecap:butt;stroke-linejoin:miter;stroke:rgb(0%,0%,0%);stroke-opacity:1;stroke-miterlimit:10;" d="M 226.78125 139.335938 L 231.8125 148.847656 "/>
<path style="fill:none;stroke-width:1.2;stroke-linecap:butt;stroke-linejoin:miter;stroke:rgb(0%,0%,0%);stroke-opacity:1;stroke-miterlimit:10;" d="M 233.183594 111.605469 L 227.464844 120.71875 "/>
<path style="fill:none;stroke-width:1.2;stroke-linecap:butt;stroke-linejoin:miter;stroke:rgb(0%,0%,100%);stroke-opacity:1;stroke-miterlimit:10;" d="M 227.464844 120.71875 L 221.746094 129.828125 "/>
<path style=" stroke:none;fill-rule:nonzero;fill:rgb(100%,100%,100%);fill-opacity:1;" d="M 211.746094 122.328125 L 232.746094 122.328125 L 232.746094 137.328125 L 211.746094 137.328125 Z M 211.746094 122.328125 "/>
<g style="fill:rgb(0%,0%,100%);fill-opacity:1;">
  <use xlink:href="#glyph0-3" x="211.746094" y="134.429688"/>
  <use xlink:href="#glyph0-2" x="218.723633" y="134.429688"/>
</g>
<g style="fill:rgb(0%,0%,100%);fill-opacity:1;">
  <use xlink:href="#glyph1-1" x="225.738281" y="129.546875"/>
</g>
<path style="fill:none;stroke-width:1.2;stroke-linecap:butt;stroke-linejoin:miter;stroke:rgb(0%,0%,0%);stroke-opacity:1;stroke-miterlimit:10;" d="M 231.8125 148.847656 L 253.3125 149.636719 "/>
<path style="fill:none;stroke-width:1.2;stroke-linecap:butt;stroke-linejoin:miter;stroke:rgb(0%,0%,0%);stroke-opacity:1;stroke-miterlimit:10;" d="M 253.3125 149.636719 L 259.03125 140.523438 "/>
<path style="fill:none;stroke-width:1.2;stroke-linecap:butt;stroke-linejoin:miter;stroke:rgb(100%,0%,0%);stroke-opacity:1;stroke-miterlimit:10;" d="M 259.03125 140.523438 L 264.75 131.414062 "/>
<path style="fill:none;stroke-width:1.2;stroke-linecap:butt;stroke-linejoin:miter;stroke:rgb(100%,0%,0%);stroke-opacity:1;stroke-miterlimit:10;" d="M 264.75 131.414062 L 259.71875 121.90625 "/>
<path style="fill:none;stroke-width:1.2;stroke-linecap:butt;stroke-linejoin:miter;stroke:rgb(0%,0%,0%);stroke-opacity:1;stroke-miterlimit:10;" d="M 259.71875 121.90625 L 254.683594 112.394531 "/>
<path style=" stroke:none;fill-rule:nonzero;fill:rgb(100%,100%,100%);fill-opacity:1;" d="M 260.75 125.914062 L 268.75 125.914062 L 268.75 136.914062 L 260.75 136.914062 Z M 260.75 125.914062 "/>
<g style="fill:rgb(100%,0%,0%);fill-opacity:1;">
  <use xlink:href="#glyph0-1" x="260.75" y="134.577148"/>
</g>
<path style="fill:none;stroke-width:1.2;stroke-linecap:butt;stroke-linejoin:miter;stroke:rgb(0%,0%,0%);stroke-opacity:1;stroke-miterlimit:10;" d="M 254.683594 112.394531 L 233.183594 111.605469 "/>
<path style="fill:none;stroke-width:1.2;stroke-linecap:butt;stroke-linejoin:miter;stroke:rgb(0%,0%,0%);stroke-opacity:1;stroke-miterlimit:10;" d="M 133.382812 157.507812 L 125.128906 164.410156 "/>
<path style="fill:none;stroke-width:1.2;stroke-linecap:butt;stroke-linejoin:miter;stroke:rgb(100%,0%,0%);stroke-opacity:1;stroke-miterlimit:10;" d="M 125.128906 164.410156 L 116.875 171.308594 "/>
<path style="fill:none;stroke-width:1.2;stroke-linecap:butt;stroke-linejoin:miter;stroke:rgb(0%,0%,0%);stroke-opacity:1;stroke-miterlimit:10;" d="M 136.628906 161.394531 L 128.375 168.292969 "/>
<path style="fill:none;stroke-width:1.2;stroke-linecap:butt;stroke-linejoin:miter;stroke:rgb(100%,0%,0%);stroke-opacity:1;stroke-miterlimit:10;" d="M 128.375 168.292969 L 120.121094 175.191406 "/>
<path style="fill:none;stroke-width:1.2;stroke-linecap:butt;stroke-linejoin:miter;stroke:rgb(0%,0%,0%);stroke-opacity:1;stroke-miterlimit:10;" d="M 135.003906 159.453125 L 133.546875 137.984375 "/>
<path style=" stroke:none;fill-rule:nonzero;fill:rgb(100%,100%,100%);fill-opacity:1;" d="M 110.496094 167.75 L 118.496094 167.75 L 118.496094 178.75 L 110.496094 178.75 Z M 110.496094 167.75 "/>
<g style="fill:rgb(100%,0%,0%);fill-opacity:1;">
  <use xlink:href="#glyph0-1" x="110.496094" y="176.413086"/>
</g>
<path style="fill:none;stroke-width:1.2;stroke-linecap:butt;stroke-linejoin:miter;stroke:rgb(0%,0%,0%);stroke-opacity:1;stroke-miterlimit:10;" d="M 133.546875 137.984375 L 115.320312 126.550781 "/>
<path style="fill:none;stroke-width:1.2;stroke-linecap:butt;stroke-linejoin:miter;stroke:rgb(0%,0%,0%);stroke-opacity:1;stroke-miterlimit:10;" d="M 134.414062 132.554688 L 119.832031 123.40625 "/>
<path style="fill:none;stroke-width:1.2;stroke-linecap:butt;stroke-linejoin:miter;stroke:rgb(0%,0%,0%);stroke-opacity:1;stroke-miterlimit:10;" d="M 115.320312 126.550781 L 96.304688 136.613281 "/>
<path style="fill:none;stroke-width:1.2;stroke-linecap:butt;stroke-linejoin:miter;stroke:rgb(0%,0%,0%);stroke-opacity:1;stroke-miterlimit:10;" d="M 96.304688 136.613281 L 76.984375 127.144531 "/>
<path style="fill:none;stroke-width:1.2;stroke-linecap:butt;stroke-linejoin:miter;stroke:rgb(0%,0%,0%);stroke-opacity:1;stroke-miterlimit:10;" d="M 93.269531 157.914062 L 96.304688 136.613281 "/>
<path style="fill:none;stroke-width:1.2;stroke-linecap:butt;stroke-linejoin:miter;stroke:rgb(0%,0%,0%);stroke-opacity:1;stroke-miterlimit:10;" d="M 88.5625 155.070312 L 90.988281 138.03125 "/>
<path style="fill:none;stroke-width:1.2;stroke-linecap:butt;stroke-linejoin:miter;stroke:rgb(0%,0%,0%);stroke-opacity:1;stroke-miterlimit:10;" d="M 76.984375 127.144531 L 62.007812 142.59375 "/>
<path style="fill:none;stroke-width:1.2;stroke-linecap:butt;stroke-linejoin:miter;stroke:rgb(0%,0%,0%);stroke-opacity:1;stroke-miterlimit:10;" d="M 71.851562 125.167969 L 59.871094 137.527344 "/>
<path style="fill:none;stroke-width:1.2;stroke-linecap:butt;stroke-linejoin:miter;stroke:rgb(0%,0%,0%);stroke-opacity:1;stroke-miterlimit:10;" d="M 71.09375 106.453125 L 76.984375 127.144531 "/>
<path style="fill:none;stroke-width:1.2;stroke-linecap:butt;stroke-linejoin:miter;stroke:rgb(0%,0%,0%);stroke-opacity:1;stroke-miterlimit:10;" d="M 62.007812 142.59375 L 67.039062 152.101562 "/>
<path style="fill:none;stroke-width:1.2;stroke-linecap:butt;stroke-linejoin:miter;stroke:rgb(0%,0%,100%);stroke-opacity:1;stroke-miterlimit:10;" d="M 67.039062 152.101562 L 72.074219 161.613281 "/>
<path style="fill:none;stroke-width:1.2;stroke-linecap:butt;stroke-linejoin:miter;stroke:rgb(0%,0%,0%);stroke-opacity:1;stroke-miterlimit:10;" d="M 62.007812 142.59375 L 41.140625 137.351562 "/>
<path style="fill:none;stroke-width:1.2;stroke-linecap:butt;stroke-linejoin:miter;stroke:rgb(0%,0%,100%);stroke-opacity:1;stroke-miterlimit:10;" d="M 72.074219 161.613281 L 82.671875 159.761719 "/>
<path style="fill:none;stroke-width:1.2;stroke-linecap:butt;stroke-linejoin:miter;stroke:rgb(0%,0%,0%);stroke-opacity:1;stroke-miterlimit:10;" d="M 82.671875 159.761719 L 93.269531 157.914062 "/>
<path style="fill:none;stroke-width:1.2;stroke-linecap:butt;stroke-linejoin:miter;stroke:rgb(0%,0%,100%);stroke-opacity:1;stroke-miterlimit:10;" d="M 72.074219 161.613281 L 67.339844 171.273438 "/>
<path style="fill:none;stroke-width:1.2;stroke-linecap:butt;stroke-linejoin:miter;stroke:rgb(0%,0%,0%);stroke-opacity:1;stroke-miterlimit:10;" d="M 67.339844 171.273438 L 62.605469 180.933594 "/>
<path style=" stroke:none;fill-rule:nonzero;fill:rgb(100%,100%,100%);fill-opacity:1;" d="M 69.074219 156.113281 L 76.074219 156.113281 L 76.074219 167.113281 L 69.074219 167.113281 Z M 69.074219 156.113281 "/>
<g style="fill:rgb(0%,0%,100%);fill-opacity:1;">
  <use xlink:href="#glyph0-3" x="69.074219" y="164.776367"/>
</g>
<path style="fill:none;stroke-width:1.2;stroke-linecap:butt;stroke-linejoin:miter;stroke:rgb(0%,0%,0%);stroke-opacity:1;stroke-miterlimit:10;" d="M 62.605469 180.933594 L 74.601562 198.792969 "/>
<path style="fill:none;stroke-width:1.2;stroke-linecap:butt;stroke-linejoin:miter;stroke:rgb(0%,0%,0%);stroke-opacity:1;stroke-miterlimit:10;" d="M 41.140625 137.351562 L 35.25 116.65625 "/>
<path style="fill:none;stroke-width:1.2;stroke-linecap:butt;stroke-linejoin:miter;stroke:rgb(0%,0%,0%);stroke-opacity:1;stroke-miterlimit:10;" d="M 45.421875 133.894531 L 40.707031 117.339844 "/>
<path style="fill:none;stroke-width:1.2;stroke-linecap:butt;stroke-linejoin:miter;stroke:rgb(0%,0%,0%);stroke-opacity:1;stroke-miterlimit:10;" d="M 35.25 116.65625 L 50.226562 101.207031 "/>
<path style="fill:none;stroke-width:1.2;stroke-linecap:butt;stroke-linejoin:miter;stroke:rgb(0%,0%,0%);stroke-opacity:1;stroke-miterlimit:10;" d="M 50.226562 101.207031 L 71.09375 106.453125 "/>
<path style="fill:none;stroke-width:1.2;stroke-linecap:butt;stroke-linejoin:miter;stroke:rgb(0%,0%,0%);stroke-opacity:1;stroke-miterlimit:10;" d="M 51.078125 106.640625 L 67.773438 110.839844 "/>
</g>
</svg>

<svg xmlns="http://www.w3.org/2000/svg" xmlns:xlink="http://www.w3.org/1999/xlink" width="300pt" height="300pt" viewBox="0 0 300 300"><defs><symbol overflow="visible"><path d="M.453 1.594v-7.938h4.5v7.938zm.5-.5h3.5v-6.938h-3.5zm0 0"/></symbol><symbol overflow="visible" id="a"><path d="M3.547-5.953c-.65 0-1.164.242-1.547.72-.375.48-.563 1.13-.563 1.952 0 .835.188 1.49.563 1.967.383.48.898.72 1.547.72.644 0 1.156-.24 1.53-.72.376-.476.564-1.132.564-1.968 0-.822-.187-1.474-.562-1.954-.375-.477-.887-.72-1.53-.72zm0-.734c.914 0 1.648.312 2.203.937.55.617.828 1.438.828 2.47 0 1.042-.277 1.87-.828 2.483-.555.617-1.29.922-2.203.922-.93 0-1.668-.305-2.22-.922C.774-1.41.5-2.237.5-3.28c0-1.033.273-1.853.828-2.47.55-.625 1.29-.938 2.22-.938zm0 0"/></symbol><symbol overflow="visible" id="b"><path d="M.89-6.563h.876v2.688H5v-2.688h.89V0H5v-3.125H1.766V0H.89zm0 0"/></symbol><symbol overflow="visible" id="c"><path d="M.89-6.563H2.08l2.906 5.485v-5.484h.86V0H4.656L1.75-5.484V0H.89zm0 0"/></symbol><symbol overflow="visible"><path d="M.406 1.422V-5.64h4V1.42zM.844.97h3.11v-6.157H.843zm0 0"/></symbol><symbol overflow="visible" id="d"><path d="M3.688-5.016v2.172h2.17v.672H3.69V0H3.03v-2.172H.845v-.672H3.03v-2.172zm0 0"/></symbol></defs><g><path fill="#fff" d="M0 0h300v300H0z"/><path d="M153.512 129.965l6.898 8.254" stroke-width="1.2" stroke="#f00" stroke-miterlimit="10" fill="none"/><path d="M160.41 138.22l6.9 8.253" stroke-width="1.2" stroke="#000" stroke-miterlimit="10" fill="none"/><path d="M153.512 129.965l-9.985 4.008" stroke-width="1.2" stroke="#f00" stroke-miterlimit="10" fill="none"/><path d="M143.527 133.973l-9.98 4.01" stroke-width="1.2" stroke="#000" stroke-miterlimit="10" fill="none"/><path d="M149.512 124.465h8v11h-8zm0 0" fill="#fff"/><use xlink:href="#a" x="149.512" y="133.128" fill="#f00"/><path d="M167.31 146.473l-11.44 18.222M170.453 150.984l-9.148 14.582M188.81 147.262l-21.5-.79M155.87 164.695l10.067 19.016M155.87 164.695l-20.866-5.242M165.938 183.71l21.5.794M168.273 178.734l17.204.633M187.438 184.504l11.437-18.223M198.875 166.28l10.75.396" stroke-width="1.2" stroke="#000" stroke-miterlimit="10" fill="none"/><path d="M209.625 166.676l10.75.394" stroke-width="1.2" stroke="#f00" stroke-miterlimit="10" fill="none"/><path d="M198.875 166.28l-10.066-19.018M193.395 166.746l-8.05-15.215" stroke-width="1.2" stroke="#000" stroke-miterlimit="10" fill="none"/><path d="M213.375 161.57h15v11h-15zm0 0" fill="#fff"/><g fill="#f00"><use xlink:href="#a" x="213.375" y="170.233"/><use xlink:href="#b" x="220.717" y="170.233"/></g><path d="M188.81 147.262l11.436-18.223M200.246 129.04l10.75.394" stroke-width="1.2" stroke="#000" stroke-miterlimit="10" fill="none"/><path d="M210.996 129.434l10.75.394M221.746 129.828l5.035 9.508" stroke-width="1.2" stroke="#00f" stroke-miterlimit="10" fill="none"/><path d="M226.78 139.336l5.032 9.512M233.184 111.605l-5.72 9.114" stroke-width="1.2" stroke="#000" stroke-miterlimit="10" fill="none"/><path d="M227.465 120.72l-5.72 9.108" stroke-width="1.2" stroke="#00f" stroke-miterlimit="10" fill="none"/><path d="M211.746 122.328h21v15h-21zm0 0" fill="#fff"/><g fill="#00f"><use xlink:href="#c" x="211.746" y="134.43"/><use xlink:href="#b" x="218.724" y="134.43"/></g><use xlink:href="#d" x="225.738" y="129.547" fill="#00f"/><path d="M231.813 148.848l21.5.79M253.313 149.637l5.718-9.114" stroke-width="1.2" stroke="#000" stroke-miterlimit="10" fill="none"/><path d="M259.03 140.523l5.72-9.11M264.75 131.414l-5.03-9.508" stroke-width="1.2" stroke="#f00" stroke-miterlimit="10" fill="none"/><path d="M259.72 121.906l-5.036-9.51" stroke-width="1.2" stroke="#000" stroke-miterlimit="10" fill="none"/><path d="M260.75 125.914h8v11h-8zm0 0" fill="#fff"/><use xlink:href="#a" x="260.75" y="134.577" fill="#f00"/><path d="M254.684 112.395l-21.5-.79M133.383 157.508l-8.254 6.902" stroke-width="1.2" stroke="#000" stroke-miterlimit="10" fill="none"/><path d="M125.13 164.41l-8.255 6.9" stroke-width="1.2" stroke="#f00" stroke-miterlimit="10" fill="none"/><path d="M136.63 161.395l-8.255 6.898" stroke-width="1.2" stroke="#000" stroke-miterlimit="10" fill="none"/><path d="M128.375 168.293l-8.254 6.898" stroke-width="1.2" stroke="#f00" stroke-miterlimit="10" fill="none"/><path d="M135.004 159.453l-1.457-21.47" stroke-width="1.2" stroke="#000" stroke-miterlimit="10" fill="none"/><path d="M110.496 167.75h8v11h-8zm0 0" fill="#fff"/><use xlink:href="#a" x="110.496" y="176.413" fill="#f00"/><path d="M133.547 137.984L115.32 126.55M134.414 132.555l-14.582-9.15M115.32 126.55l-19.015 10.063M96.305 136.613l-19.32-9.468M93.27 157.914l3.035-21.3M88.563 155.07l2.425-17.04M76.984 127.145l-14.976 15.45M71.852 125.168l-11.98 12.36M71.094 106.453l5.89 20.692M62.008 142.594l5.03 9.508" stroke-width="1.2" stroke="#000" stroke-miterlimit="10" fill="none"/><path d="M67.04 152.102l5.034 9.51" stroke-width="1.2" stroke="#00f" stroke-miterlimit="10" fill="none"/><path d="M62.008 142.594l-20.867-5.242" stroke-width="1.2" stroke="#000" stroke-miterlimit="10" fill="none"/><path d="M72.074 161.613l10.598-1.85" stroke-width="1.2" stroke="#00f" stroke-miterlimit="10" fill="none"/><path d="M82.672 159.762l10.598-1.848" stroke-width="1.2" stroke="#000" stroke-miterlimit="10" fill="none"/><path d="M72.074 161.613l-4.734 9.66" stroke-width="1.2" stroke="#00f" stroke-miterlimit="10" fill="none"/><path d="M67.34 171.273l-4.735 9.66" stroke-width="1.2" stroke="#000" stroke-miterlimit="10" fill="none"/><path d="M69.074 156.113h7v11h-7zm0 0" fill="#fff"/><use xlink:href="#c" x="69.074" y="164.776" fill="#00f"/><path d="M62.605 180.934l11.997 17.86M41.14 137.352l-5.89-20.696M45.422 133.895l-4.715-16.555M35.25 116.656l14.977-15.45M50.227 101.207l20.867 5.246M51.078 106.64l16.695 4.2" stroke-width="1.2" stroke="#000" stroke-miterlimit="10" fill="none"/></g></svg>
